X: 21895
T: Kissing Dance, The
R: polka
M: 2/4
K: Gmajor
gf|:e2 A2|e2 fe|ed BA|B2 Bc|
dd AB|cA FG|AG GG|1 G2 gf:|2 G2 GA||
|:B2 BA|Bd dB|Bd cB|A2 Bc|
dd AB|cA FG|AG GG|1 GD GA:|2 G2 gf||

